X:14
T:La soyotte de Bar s/Aube [sans doute bon]
R:
S:
N:
A:Champagne
G:
O:France
Z:<anamnese@laposte.net>
M:2/4
L:1/8
Q:1/4=135
K:C
Gc | ed/e/ fe | d2 dd | dd cd | ec Gc | ed/e/ fe | c3 G/c/ | e3 G/c/ |
e2-e>e | e>e e>e | d2-d>d | d>g f>d | e2 :|
